X:1
T:Title
%%score { ( 1 3 ) | ( 2 4 ) }
L:1/8
M:4/4
K:Eb
V:1 treble nm="Grand Piano"
V:3 treble 
V:2 bass 
V:4 bass 
V:1
 z4 z2[Q:1/4=100] B2 | G2 [DG][DF] E2 G[FA] | [GB]2 [_Gc][G=A] [=GB]3 [GB] | %3
 [GB]2 [FA][EG] z A,E[DF] |[M:7/8] G- G3 B2 z |[M:1/8] B |[M:4/4] G2 GF E2 GA | %7
 [GB]2 [_Gc][G=A] [=GB]3 [EG]/G/ | F2 FF =A2 GA |[M:3/4] c4 [B,DB]2 |[M:1/4] [FB]B | %11
[M:4/4] [Fd]2 [_Gd][Gc] [=GB]2 [F=B]2 | [Ec]2 [=Ec][CEB] [CFA]2 [B,_EG]2 | %13
 [A,CF]2 [A,CF][B,EG] [CEA]2 [A,CF]2 |[M:7/8] E- E3 D2 z |[M:1/8] B, |[M:4/4] E2 EF G2 GA | %17
[M:9/8] [GB]2 [Ge]- [Ge] c2- c c2 |[M:4/4] B2 Bc B2 G2 |[M:3/4] F2- [DF]2 E2 |[M:1/4] B,B, | %21
[M:4/4] E4- EDEF | G2 G2 z2 [GB]2 | [Ge]3 [Ge] [Ad]2 [Ac]2 | [GB]4 z BBc | %25
 [DA]2 [DA]2 z2 [FA][GB] | G2 G2 z2 G2 | F3 F G2 F2 | [B,DB]4 z B=AB | [Ge]2 [GB]2 z2 [_G=A][=GB] | %30
 [Bd]2 [Ac]2 z2 [Ec]2 | [EB]3 [EB] [DB]2 D2 |[M:3/4] E6 |] %33
V:2
 z4 z2 [E,G,E]2 | [E,B,E]2 [B,,B,][B,,A,] [E,G,]2 [E,B,E][E,B,] | %2
 [E,B,]2 [E,=A,][E,C] [E,B,]3 [E,B,] | [B,,B,]2 [B,,B,][B,,B,] .[B,,B,]2 [C,G,C][B,,B,] | %4
[M:7/8] [E,B,E]- [E,B,E]3 [E,G,E]2 z |[M:1/8] [E,G,E] | %6
[M:4/4] [E,B,E]2 [E,B,E][A,B,D] [G,B,]2 [G,B,E][F,B,F] | [E,B,]2 [E,=A,][E,C] [E,B,]3 z/ E/ | %8
 [F,B,D]2 [F,B,D][F,B,D] [F,CE]2 EE |[M:3/4] [F,=A,E]4 B,,2 |[M:1/4] z F | %11
[M:4/4] [B,,B,]2 [D,=A,][D,A,] [E,G,]2 [D,G,]2 | [C,G,]2 [C,G,]C, F,2 G,,2 | %13
 A,,2 A,,G,, F,,2 A,,2 |[M:7/8] [B,,G,B,]- [B,,G,B,]3 [B,,F,B,]2 z |[M:1/8] [B,,A,] | %16
[M:4/4] [E,G,B,]2 [E,G,B,][A,B,D] [G,B,E]2 [G,B,E][F,B,F] | %17
[M:9/8] [E,B,]2 [E,_D]- [E,D][K:treble] [A,CE]2- [A,CE] [=A,E_G]2 | %18
[M:4/4] [B,EG]2 [B,EG][B,EG] [B,EG]2[K:bass] [B,E]2 |[M:3/4] [B,,A,]4 [E,G,]2 |[M:1/4] B,,B,, | %21
[M:4/4] [E,G,B,]4- [E,G,B,][A,B,][G,B,][F,B,D] | [E,B,E]2 [E,B,E]2 z2 [E,B,]2 | %23
 [E,B,]3 [E,B,] [E,C]2 [E,D]2 | [E,E]4 z [E,G,E][E,G,E][E,G,E] | %25
 [B,,F,]2 [B,,F,]2 z2 [B,,B,][B,,B,] | [E,B,E]2 [E,B,E]2 z2 [E,B,E]2 | %27
 [F,B,D]3 [F,B,D] [F,=A,E]2 [F,A,E]2 | B,,4 z B,=A,B, | [E,B,]2 [E,E]2 z2 [E,E][E,E] | %30
 [A,E]2 [A,E]2 z2 [A,,A,]2 | [B,,G,]3 [B,,G,] [B,,F,]2 [B,,A,B,]2 |[M:3/4] [E,G,B,]6 |] %33
V:3
 x8 | x8 | x8 | z4 [DF]2 z2 |[M:7/8] x7 |[M:1/8] x |[M:4/4] x8 | x8 | x8 |[M:3/4] x6 |[M:1/4] D2 | %11
[M:4/4] x8 | x8 | x8 |[M:7/8] x7 |[M:1/8] x |[M:4/4] x8 |[M:9/8] x9 |[M:4/4] x8 |[M:3/4] E2 z2 z2 | %20
[M:1/4] x2 |[M:4/4] x8 | x8 | x8 | x8 | x8 | x8 | x8 | x8 | x8 | x8 | x8 |[M:3/4] x6 |] %33
V:4
 x8 | x8 | x8 | x8 |[M:7/8] x7 |[M:1/8] x |[M:4/4] x8 | z4 z2 z [E,B,] | z4 z2 [F,C]2 |[M:3/4] x6 | %10
[M:1/4] B,,2 |[M:4/4] x8 | x8 | x8 |[M:7/8] x7 |[M:1/8] x |[M:4/4] x8 |[M:9/8] x4[K:treble] x5 | %18
[M:4/4] x6[K:bass] x2 |[M:3/4] x6 |[M:1/4] x2 |[M:4/4] x8 | x8 | x8 | x8 | x8 | x8 | x8 | x8 | x8 | %30
 x8 | x8 |[M:3/4] x6 |] %33

